X:1
T:Title
%%score { 1 | 2 }
L:1/8
Q:1/4=100
M:3/4
K:F
V:1 treble nm="Grand Piano"
V:2 bass 
V:1
 FG A2 c2 | dc A4 | [Ec][EB] [EG]2 C2 | dc A4 | FG A2 c2 |[M:4/4] [DB][DB] [Fd]6 | %6
w: Arthur~W.~Spooner * * *||||||
[M:3/4] [Fc][DFB] [CFA]2 [B,EG]2 | F4 z2 | CF A2 F2 | E[EB] [EB]4 | E[EB] [Ec]2 [EA]2 | Fc c4 | %12
w: ||||||
 CF A2 c2 | [DB][DB] [Fd]4 | [Fc][DFB] [CFA]2 [B,EG]2 | F4 z2 | CF A2 F2 | E[EB] [EB]4 | %18
w: ||||||
 E[EB] [Ec]2 [EA]2 | Fc c4 | CF A2 c2 | [DB][DB] [Fd]4 | cB A2 [EG]2 | [CF]6 |] %24
w: ||||||
V:2
 [F,A,][F,B,F] [F,CF]2 [F,A,F]2 | [F,B,F][F,A,F] [F,CF]4 | [C,C][C,C] [C,B,]2 [C,B,]2 | %3
 [F,B,F][F,A,F] [F,CF]4 | [F,A,][F,B,F] [F,CF]2 [F,A,F]2 |[M:4/4] [B,,B,]2 [B,,B,]6 | %6
[M:3/4] [C,A,]C, C,2 C,2 | [F,A,C]4 z2 | [F,A,][F,A,C] [F,CF]2 [F,A,C]2 | [C,G,C][C,C] [C,C]4 | %10
 [C,G,][C,G,] [C,G,]2 [C,B,]2 | [F,A,][F,A,F] [F,A,F]4 | [F,A,][F,A,C] [F,CF]2 [F,A,F]2 | %13
 [B,,B,][B,,B,] [B,,B,]4 | [C,A,]C, C,2 C,2 | [F,A,]4 z2 | [F,A,][F,A,C] [F,CF]2 [F,A,C]2 | %17
 [C,G,C][C,C] [C,C]4 | [C,G,][C,G,] [C,G,]2 [C,B,]2 | [F,A,][F,A,F] [F,A,F]4 | %20
 [F,A,][F,A,C] [F,CF]2 [F,A,F]2 | [B,,B,][B,,B,] [B,,B,]4 | [A,CF][B,DF] [CF]2[K:bass] [C,B,]2 | %23
 [F,A,]6 |] %24

